actual/images/websitebadge.svg

<?xml version="1.0" encoding="UTF-8" standalone="no"?>
<!-- Generator: Adobe Illustrator 15.1.0, SVG Export Plug-In . SVG Version: 6.00 Build 0)  -->
<!DOCTYPE svg  PUBLIC '-//W3C//DTD SVG 1.1//EN'  'http://www.w3.org/Graphics/SVG/1.1/DTD/svg11.dtd'>
<svg id="Layer_1" xmlns="http://www.w3.org/2000/svg" xml:space="preserve" height="103.05px" viewBox="0 0 231.579 103.051" width="231.58px" version="1.1" y="0px" x="0px" xmlns:xlink="http://www.w3.org/1999/xlink" enable-background="new 0 0 231.579 103.051">
<path d="m198 27.16h-168.16c-3.493 0-6.338 2.841-6.338 6.334v40.93c0 3.492 2.845 6.344 6.338 6.344h168.16c3.492 0 6.437-2.852 6.437-6.342v-40.932c-0.01-3.493-2.95-6.334-6.44-6.334z" fill="#235587"/>
<path d="m198 79.559h-168.16c-2.84 0-5.144-2.299-5.144-5.135v-40.932c0-2.835 2.304-5.14 5.144-5.14h168.16c2.842 0 5.137 2.305 5.137 5.14l0.003 40.932c0 2.836-2.3 5.135-5.14 5.135z" fill="#3B88E4"/>
<path d="m198 27.16h-168.16c-3.493 0-6.338 2.841-6.338 6.334v40.93c0 3.492 2.845 6.344 6.338 6.344h168.16c3.492 0 6.437-2.852 6.437-6.342v-40.932c-0.01-3.493-2.95-6.334-6.44-6.334zm0 52.399h-168.16c-2.84 0-5.144-2.299-5.144-5.135v-40.932c0-2.835 2.304-5.14 5.144-5.14h168.16c2.842 0 5.137 2.305 5.137 5.14l0.003 40.932c0 2.836-2.3 5.135-5.14 5.135z" fill="#3B88E4"/>
<text font-size="21" font-family="&apos;MeltowSan200-Regular&apos;" transform="translate(97.04 61.026)" fill="#FFFFFF">website</text>
		<path d="m73.374 35.011h-33.169c-1.308 0-2.369 1.061-2.369 2.369v33.169c0 1.307 1.061 2.368 2.369 2.368h33.169c1.308 0 2.369-1.062 2.369-2.368v-33.169c0-1.308-1.061-2.369-2.369-2.369zm-30.799 5.923c0-0.654 0.53-1.185 1.185-1.185h3.554v4.738h-4.738v-3.553zm28.429 26.061c0 0.654-0.53 1.185-1.185 1.185h-26.06c-0.655 0-1.185-0.53-1.185-1.185v-17.769h28.43v17.769zm0-22.507h-18.953v-4.738h17.769c0.654 0 1.185 0.53 1.185 1.185v3.553z" fill="#fff"/>
</svg>

<?xml version="1.0" encoding="utf-8"?>
<!-- Generator: Adobe Illustrator 15.1.0, SVG Export Plug-In . SVG Version: 6.00 Build 0)  -->
<!DOCTYPE svg PUBLIC "-//W3C//DTD SVG 1.1//EN" "http://www.w3.org/Graphics/SVG/1.1/DTD/svg11.dtd">
<svg version="1.1" id="Layer_1" xmlns="http://www.w3.org/2000/svg" xmlns:xlink="http://www.w3.org/1999/xlink" x="0px" y="0px"
	 width="231.579px" height="103.051px" viewBox="0 0 231.579 103.051" enable-background="new 0 0 231.579 103.051"
	 xml:space="preserve">
<path fill="#235587" d="M197.997,27.16H29.84c-3.493,0-6.338,2.841-6.338,6.334v40.93c0,3.492,2.845,6.344,6.338,6.344h168.157
	c3.492,0,6.437-2.852,6.437-6.342V33.494C204.433,30.001,201.489,27.16,197.997,27.16z"/>
<path fill="#3B88E4" d="M197.997,79.559H29.84c-2.84,0-5.144-2.299-5.144-5.135V33.492c0-2.835,2.304-5.14,5.144-5.14h168.157
	c2.842,0,5.137,2.305,5.137,5.14l0.003,40.932C203.136,77.26,200.838,79.559,197.997,79.559z"/>
<path fill="#3B88E4" d="M197.997,27.16H29.84c-3.493,0-6.338,2.841-6.338,6.334v40.93c0,3.492,2.845,6.344,6.338,6.344h168.157
	c3.492,0,6.437-2.852,6.437-6.342V33.494C204.433,30.001,201.489,27.16,197.997,27.16z M197.997,79.559H29.84
	c-2.84,0-5.144-2.299-5.144-5.135V33.492c0-2.835,2.304-5.14,5.144-5.14h168.157c2.842,0,5.137,2.305,5.137,5.14l0.003,40.932
	C203.136,77.26,200.838,79.559,197.997,79.559z"/>
<text transform="matrix(1 0 0 1 97.0396 61.0259)" fill="#FFFFFF" font-family="'MeltowSan200-Regular'" font-size="21">website</text>
<g>
	<g>
		<path fill="#FFFFFF" d="M73.374,35.011H40.205c-1.308,0-2.369,1.061-2.369,2.369v33.169c0,1.307,1.061,2.368,2.369,2.368h33.169
			c1.308,0,2.369-1.062,2.369-2.368V37.38C75.743,36.072,74.682,35.011,73.374,35.011z M42.575,40.934
			c0-0.654,0.53-1.185,1.185-1.185h3.554v4.738h-4.738V40.934z M71.004,66.995c0,0.654-0.53,1.185-1.185,1.185H43.759
			c-0.655,0-1.185-0.53-1.185-1.185V49.226h28.43V66.995z M71.004,44.488H52.051V39.75H69.82c0.654,0,1.185,0.53,1.185,1.185V44.488
			z"/>
	</g>
</g>
</svg>
